src/section/s3/6.svg

<svg width="99" height="118" viewBox="0 0 99 118" fill="none" xmlns="http://www.w3.org/2000/svg">
<path d="M57.6738 34.0381H73.1142V47.6535" stroke="black" stroke-width="5" stroke-miterlimit="10"/>
<path d="M31.335 42.2074V31.2503C31.335 24.2681 37.0282 18.6074 44.0506 18.6074C51.073 18.6074 56.7662 24.2681 56.7662 31.2503V42.2074" stroke="black" stroke-width="5" stroke-miterlimit="10"/>
<path d="M40.417 34.0382V31.4664C40.417 24.3648 46.1102 18.6074 53.1326 18.6074C60.155 18.6074 65.8482 24.3648 65.8482 31.4664V34.0382" stroke="black" stroke-width="5" stroke-miterlimit="10"/>
<path d="M28.6104 42.208H34.9681" stroke="black" stroke-width="5" stroke-miterlimit="10"/>
<path d="M53.1328 42.208H60.3989" stroke="black" stroke-width="5" stroke-miterlimit="10"/>
<path d="M32.2432 34.0381H50.4083" stroke="black" stroke-width="5" stroke-miterlimit="10"/>
<path d="M73.1484 99.3919V34.0381H83.1055V99.3919H15.8945V34.0381H25.8517" stroke="black" stroke-width="5" stroke-miterlimit="10"/>
</svg>

<?xml version="1.0" encoding="utf-8"?>
<!-- Generator: Adobe Illustrator 27.6.1, SVG Export Plug-In . SVG Version: 6.00 Build 0)  -->
<svg version="1.1" id="圖層_1" xmlns="http://www.w3.org/2000/svg" xmlns:xlink="http://www.w3.org/1999/xlink" x="0px" y="0px"
	 viewBox="0 0 99 118" style="enable-background:new 0 0 99 118;" xml:space="preserve">
<style type="text/css">
	.st0{fill:none;stroke:#FFFFFF;stroke-width:5;stroke-miterlimit:10;}
</style>
<path class="st0" d="M57.7,34h15.4v13.6"/>
<path class="st0" d="M31.3,42.2v-11c0-7,5.7-12.6,12.7-12.6s12.7,5.7,12.7,12.6v11"/>
<path class="st0" d="M40.4,34v-2.6c0-7.1,5.7-12.9,12.7-12.9s12.7,5.8,12.7,12.9V34"/>
<path class="st0" d="M28.6,42.2H35"/>
<path class="st0" d="M53.1,42.2h7.3"/>
<path class="st0" d="M32.2,34h18.2"/>
<path class="st0" d="M73.1,99.4V34h10v65.4H15.9V34h10"/>
</svg>
